build/assets/images/svg/icons/lk/basket/navigation.svg

<svg width="16" height="16" viewBox="0 0 16 16" fill="none" xmlns="http://www.w3.org/2000/svg">
<path fill-rule="evenodd" clip-rule="evenodd" d="M14.1725 3.89015C14.6821 2.54669 13.3665 1.23114 12.0231 1.74073L2.49218 5.35589C1.15291 5.86389 1.03597 7.71301 2.30058 8.38567L5.6227 10.1528C5.68131 10.1839 5.72928 10.2319 5.76045 10.2905L7.52754 13.6126C8.2002 14.8772 10.0493 14.7603 10.5573 13.421L14.1725 3.89015ZM12.4959 2.98739C12.7646 2.88547 13.0277 3.14858 12.9258 3.41727L9.31066 12.9482C9.20906 13.216 8.83923 13.2394 8.7047 12.9865L6.93762 9.66436C6.78174 9.3713 6.5419 9.13147 6.24885 8.97559L2.92673 7.20851C2.67381 7.07398 2.6972 6.70415 2.96505 6.60255L12.4959 2.98739Z" fill="#70798E"/>
</svg>

<svg width="16" height="16" fill="none" xmlns="http://www.w3.org/2000/svg"><path fill-rule="evenodd" clip-rule="evenodd" d="M14.172 3.89c.51-1.343-.806-2.659-2.149-2.15l-9.53 3.616c-1.34.508-1.457 2.357-.192 3.03l3.322 1.767c.058.03.106.079.137.137l1.768 3.323c.672 1.264 2.521 1.147 3.03-.192l3.614-9.53zm-1.676-.903a.333.333 0 01.43.43L9.31 12.948a.333.333 0 01-.606.038L6.938 9.665a1.667 1.667 0 00-.69-.688l-3.32-1.768a.333.333 0 01.038-.606l9.53-3.616z" fill="#70798E"/></svg>
